public/assets/icon_feedback.svg

<svg fill="none" height="10" viewBox="0 0 11 10" width="11" xmlns="http://www.w3.org/2000/svg"><path d="m10.072 9.86c-.0706 0-.1369-.01326-.19875-.03976-.06185-.02651-.11928-.06627-.17229-.11928l-1.21924-1.21924h-5.30108c-.29155 0-.54106-.10373-.74851-.31118-.20745-.20744-.31135-.45712-.3117-.74904v-.5301h5.83118c.29156 0 .54124-.10373.74904-.31118s.31153-.45713.31118-.74904v-3.71075h.5301c.29156 0 .54127.1039.74907.3117s.3115.45731.3111.74851v6.136c0 .15903-.053.28944-.159.39122s-.2297.15249-.3711.15214zm-9.01179-4.46616.62288-.62287h5.20831v-3.71076h-5.83119zm-.530103 1.81562c-.141362 0-.265053-.05071-.371075-.15214-.1060213-.10143-.159032-.23183-.159032-.39122v-5.60589c0-.291554.103901-.541058.311703-.748507.207802-.207449.457306-.31134959.748507-.311703h5.83119c.29155 0 .54124.103901.74904.311703s.31152.457306.31117.748507v3.71076c0 .29156-.10372.54124-.31117.74904s-.45713.31152-.74904.31117h-4.77097l-1.219247 1.21925c-.053011.05301-.110439.09277-.172285.11927-.061846.02651-.12811.03976-.198791.03976z" fill="#fff"/></svg>

<svg width="11" height="10" viewBox="0 0 11 10" fill="none" xmlns="http://www.w3.org/2000/svg">
<path d="M10.072 9.86C10.0014 9.86 9.9351 9.84674 9.87325 9.82024C9.8114 9.79373 9.75397 9.75397 9.70096 9.70096L8.48172 8.48172H3.18064C2.88909 8.48172 2.63958 8.37799 2.43213 8.17054C2.22468 7.9631 2.12078 7.71342 2.12043 7.4215V6.8914H7.95161C8.24317 6.8914 8.49285 6.78767 8.70065 6.58022C8.90845 6.37277 9.01218 6.12309 9.01183 5.83118V2.12043H9.54193C9.83349 2.12043 10.0832 2.22433 10.291 2.43213C10.4988 2.63993 10.6025 2.88944 10.6021 3.18064V9.31664C10.6021 9.47567 10.5491 9.60608 10.4431 9.70786C10.3371 9.80964 10.2134 9.86035 10.072 9.86ZM1.06021 5.39384L1.68309 4.77097H6.8914V1.06021H1.06021V5.39384ZM0.530107 7.20946C0.388745 7.20946 0.265054 7.15875 0.159032 7.05732C0.0530107 6.95589 0 6.82549 0 6.6661V1.06021C0 0.768656 0.103901 0.519152 0.311703 0.311703C0.519505 0.104254 0.769009 0.000353405 1.06021 0H6.8914C7.18295 0 7.43264 0.103901 7.64044 0.311703C7.84824 0.519505 7.95196 0.769009 7.95161 1.06021V4.77097C7.95161 5.06253 7.84789 5.31221 7.64044 5.52001C7.43299 5.72781 7.18331 5.83153 6.8914 5.83118H2.12043L0.901183 7.05043C0.848172 7.10344 0.790744 7.1432 0.728898 7.1697C0.667052 7.19621 0.600788 7.20946 0.530107 7.20946Z" fill="white"/>
</svg>
